packages/components/icons/assets/BankOutline.svg

<svg viewBox="0 0 24 24" xmlns="http://www.w3.org/2000/svg" data-title="BankOutline" fill="currentColor" stroke="none">
  <path d="M3.16762 8.4661H20.8324C21.1508 8.4661 21.425 8.35593 21.655 8.14407 21.885 7.9322 22 7.66102 22 7.34746 22 7.11864 21.9469 6.8983 21.8408 6.70339 21.7258 6.50847 21.5754 6.34746 21.372 6.23729L12.9686 2.21186C12.6678 2.0678 12.3494 2 12.0133 2 11.6771 2 11.3587 2.0678 11.0579 2.20339L2.68996 6.26271C2.45997 6.35593 2.29191 6.50847 2.16807 6.71186 2.06192 6.90678 2 7.12712 2 7.35593 2 7.66102 2.11499 7.9322 2.34498 8.15254 2.56612 8.36441 2.84918 8.47458 3.16762 8.47458V8.4661ZM7.13932 6.3983 11.9956 4.07627 16.8518 6.3983H7.13932ZM17.8072 10.0424C17.5153 10.0424 17.2499 10.1441 17.0464 10.339 16.8518 10.5339 16.7457 10.7797 16.7457 11.0508V17.322C16.7457 17.6102 16.843 17.8559 17.0464 18.0593 17.2499 18.2627 17.5064 18.3559 17.8072 18.3559 18.1079 18.3559 18.3644 18.2542 18.5679 18.0593 18.7625 17.8644 18.8686 17.6186 18.8686 17.3475V11.0763C18.8686 10.7881 18.7713 10.5424 18.5679 10.339 18.3644 10.1356 18.1079 10.0424 17.8072 10.0424ZM5.4498 10.339C5.2552 10.5339 5.14905 10.7797 5.14905 11.0508V17.322C5.14905 17.6102 5.24635 17.8559 5.4498 18.0593 5.65325 18.2627 5.90977 18.3559 6.21053 18.3559 6.51128 18.3559 6.7678 18.2542 6.97125 18.0593 7.16586 17.8644 7.272 17.6186 7.272 17.3475V11.0763C7.272 10.7881 7.1747 10.5424 6.97125 10.339 6.7678 10.1356 6.51128 10.0424 6.21053 10.0424 5.90977 10.0424 5.65325 10.1441 5.4498 10.339ZM20.9739 19.9322H3.06148C2.76957 19.9322 2.5042 20.0339 2.30075 20.2288 2.0973 20.4322 2 20.678 2 20.9661 2 21.2542 2.08846 21.5 2.28306 21.6949 2.47766 21.8983 2.73419 22 3.03494 22H20.9385C21.2304 22 21.4958 21.8983 21.6992 21.7034 21.9027 21.5 22 21.2542 22 20.9661 22 20.678 21.9115 20.4322 21.7169 20.2373 21.5223 20.0339 21.2658 19.9322 20.9651 19.9322H20.9739ZM12.0044 10.0424C11.7125 10.0424 11.4471 10.1441 11.2437 10.339 11.0491 10.5339 10.9429 10.7797 10.9429 11.0508V17.322C10.9429 17.6102 11.0402 17.8559 11.2437 18.0593 11.4471 18.2627 11.7037 18.3559 12.0044 18.3559 12.3052 18.3559 12.5617 18.2542 12.7651 18.0593 12.9598 17.8644 13.0659 17.6186 13.0659 17.3475V11.0763C13.0659 10.7881 12.9686 10.5424 12.7651 10.339 12.5617 10.1356 12.3052 10.0424 12.0044 10.0424Z"/>
</svg>

<svg viewBox="0 0 24 24" xmlns="http://www.w3.org/2000/svg" data-title="BankOutline" fill="currentColor" stroke="none">
  <path d="m3.17,8.47h17.66c.32,0,.59-.11.82-.32.23-.21.34-.48.34-.8,0-.23-.05-.45-.16-.64-.11-.19-.27-.36-.47-.47L12.97,2.21c-.3-.14-.62-.21-.96-.21s-.65.07-.96.2L2.69,6.26c-.23.09-.4.25-.52.45-.11.19-.17.42-.17.64,0,.31.11.58.34.8.22.21.5.32.82.32h0Zm3.97-2.07l4.86-2.32,4.86,2.32H7.14Zm10.67,3.64c-.29,0-.56.1-.76.3-.19.19-.3.44-.3.71v6.27c0,.29.1.53.3.74.2.2.46.3.76.3s.56-.1.76-.3c.19-.19.3-.44.3-.71v-6.27c0-.29-.1-.53-.3-.74-.2-.2-.46-.3-.76-.3Zm-12.36.3c-.19.19-.3.44-.3.71v6.27c0,.29.1.53.3.74s.46.3.76.3.56-.1.76-.3c.19-.19.3-.44.3-.71v-6.27c0-.29-.1-.53-.3-.74-.2-.2-.46-.3-.76-.3s-.56.1-.76.3Zm15.52,9.59H3.06c-.29,0-.56.1-.76.3-.2.2-.3.45-.3.74s.09.53.28.73c.19.2.45.31.75.31h17.9c.29,0,.56-.1.76-.3.2-.2.3-.45.3-.74s-.09-.53-.28-.73c-.19-.2-.45-.31-.75-.31h0Zm-8.97-9.89c-.29,0-.56.1-.76.3-.19.19-.3.44-.3.71v6.27c0,.29.1.53.3.74.2.2.46.3.76.3s.56-.1.76-.3c.19-.19.3-.44.3-.71v-6.27c0-.29-.1-.53-.3-.74-.2-.2-.46-.3-.76-.3Z"/>
</svg>
